X:4278
T:Donnybrook Fair
T:Joy of My Life, The
M:6/8
L:1/8
R:Jig
Z:This is about as often found under one title as the other.
K:G
|:D|GFG AGA|Bee dBA|BAB GAB|AGE GED|GFG AGA|Bee dBA|BAB GAB|AGF G2:|
|:f|gfe fed|ege dBA|Bee dBA|Bee e2 f|1~g3 fed|ege dBA|BAB GAB|AGF G2:|
|2~g3 aga|bge dBA|BAB GAB|AGF G2|
